icons/svg/wrench.svg

<svg width="24" height="24" viewBox="0 0 24 24" fill="none" xmlns="http://www.w3.org/2000/svg">
<path d="M10.6912 4.56163C12.4608 2.79206 15.0358 2.31885 17.2362 3.14202C17.6136 3.28321 17.6862 3.76267 17.4013 4.0476L14.6139 6.83501C14.2088 7.2401 14.2088 7.89688 14.6139 8.30197L15.6982 9.38632C16.1033 9.79141 16.7601 9.79141 17.1652 9.38632L19.9526 6.59891C20.2375 6.31398 20.717 6.38662 20.8582 6.76401C21.6813 8.96437 21.2081 11.5394 19.4385 13.309C17.7404 15.0071 15.3006 15.5114 13.1619 14.8219C12.7659 14.6943 12.3225 14.768 12.0284 15.0622L6.48101 20.6096C5.62761 21.463 4.24326 21.4637 3.38987 20.6103C2.53647 19.7569 2.5372 18.3725 3.39059 17.5191L8.93801 11.9717C9.23214 11.6776 9.30585 11.2342 9.17822 10.8383C8.48876 8.6996 8.99309 6.25975 10.6912 4.56163Z" stroke="currentColor" stroke-width="1.5" stroke-linejoin="round"/>
</svg>

<svg xmlns="http://www.w3.org/2000/svg" width="24" height="24" fill="none" viewBox="0 0 24 24"><path stroke="currentColor" stroke-linejoin="round" stroke-width="1.5" d="M10.691 4.562a6.19 6.19 0 0 1 6.545-1.42c.378.141.45.62.165.906l-2.787 2.787a1.037 1.037 0 0 0 0 1.467l1.084 1.084a1.037 1.037 0 0 0 1.467 0L19.953 6.6c.285-.285.764-.212.905.165a6.187 6.187 0 0 1-7.696 8.058c-.396-.128-.84-.054-1.134.24L6.481 20.61a2.186 2.186 0 1 1-3.09-3.09l5.547-5.548c.294-.294.368-.738.24-1.134a6.19 6.19 0 0 1 1.513-6.276Z"/></svg>
